src/icons/support-troubleshoot.svg

<svg enable-background="new 0 0 60 60" viewBox="0 0 60 60" xmlns="http://www.w3.org/2000/svg"><circle cx="30" cy="30" fill="#d4ecfc" r="30"/><path d="m18.7 21.4c-.6 2.4-7.1 2.6-6.6-.6.3-2.2.7-4.3 1.1-6.4.2-1.4-.7-.9-1.5-1.2-.5-.3-.5-.9.1-1 .8-.2 3.6-.1 4.6-.1.5 0 .8.3.8.7.1.5 0 .9-.1 1.3-.4 2.1-.9 4.3-1.1 6.3-.1.5 0 1.3.6 1.3.6-.1.9-.4 1.5-.5.4-.4.6-.1.6.2zm-3.2-14.7c1.3 0 2.2 1 2.2 2.2 0 1.3-1 2.3-2.2 2.2-1.2 0-2.2-1-2.2-2.2s1-2.2 2.2-2.2zm-.5-4.4c-7 0-12.7 5.7-12.7 12.7s5.7 12.6 12.7 12.6 12.6-5.6 12.6-12.6-5.6-12.7-12.6-12.7zm0-2.3c8.3 0 15 6.7 15 15s-6.7 15-15 15-15-6.7-15-15 6.7-15 15-15z" fill="#25a6f7" transform="translate(15 15)"/></svg>

<?xml version="1.0" encoding="utf-8"?>
<!-- Generator: Adobe Illustrator 20.1.0, SVG Export Plug-In . SVG Version: 6.00 Build 0)  -->
<svg version="1.1" id="Layer_1" xmlns="http://www.w3.org/2000/svg" xmlns:xlink="http://www.w3.org/1999/xlink" x="0px" y="0px"
	 viewBox="0 0 60 60" style="enable-background:new 0 0 60 60;" xml:space="preserve">
<style type="text/css">
	.st0{fill:#D4ECFC;}
	.st1{fill:#25A6F7;}
</style>
<title>HDL/Icon/Standard/Support/troubleshoot</title>
<desc>Created with Sketch.</desc>
<g id="Colors">
	<g id="Support-Icons" transform="translate(-100.000000, -1146.000000)">
		<g id="HDL_x2F_Icon_x2F_Standard_x2F_Support_x2F_troubleshoot" transform="translate(100.000000, 1146.000000)">
			<g id="ICON">
				<circle id="Oval" class="st0" cx="30" cy="30" r="30"/>
				<g id="HDL_x2F_Icon_x2F_Special_x2F_info" transform="translate(15.000000, 15.000000)">
					<path id="Combined-Shape-Copy-4" class="st1" d="M18.7,21.4c-0.6,2.4-7.1,2.6-6.6-0.6c0.3-2.2,0.7-4.3,1.1-6.4
						c0.2-1.4-0.7-0.9-1.5-1.2c-0.5-0.3-0.5-0.9,0.1-1c0.8-0.2,3.6-0.1,4.6-0.1c0.5,0,0.8,0.3,0.8,0.7c0.1,0.5,0,0.9-0.1,1.3
						c-0.4,2.1-0.9,4.3-1.1,6.3c-0.1,0.5,0,1.3,0.6,1.3c0.6-0.1,0.9-0.4,1.5-0.5C18.5,20.8,18.7,21.1,18.7,21.4z M15.5,6.7
						c1.3,0,2.2,1,2.2,2.2c0,1.3-1,2.3-2.2,2.2c-1.2,0-2.2-1-2.2-2.2S14.3,6.7,15.5,6.7z M15,2.3C8,2.3,2.3,8,2.3,15
						C2.3,22,8,27.6,15,27.6C22,27.6,27.6,22,27.6,15C27.6,8,22,2.3,15,2.3z M15,0c8.3,0,15,6.7,15,15c0,8.3-6.7,15-15,15
						C6.7,30,0,23.3,0,15C0,6.7,6.7,0,15,0z"/>
				</g>
			</g>
		</g>
	</g>
</g>
</svg>
